X: 23850
T: Liverpool, The
R: hornpipe
M: 4/4
K: Dmajor
|:AG|FDFA dfaf|gfed dcBA|G2BGF2dF|EDEF GBAG|
FDFA dfaf|gfed dcBA|dAaf baec|d2A2D2:|
|:Ac|d2fdc2ec|BABc dAFD|G2BGF2dF|EDEF GBAG|
FDFA dfaf|gfed dcBA|dAaf baec|d2A2D2:|

